build/svg/cmd/km/sc_underlinedouble.svg

<?xml version="1.0" encoding="UTF-8" standalone="no"?>
<svg
   xmlns:dc="http://purl.org/dc/elements/1.1/"
   xmlns:cc="http://creativecommons.org/ns#"
   xmlns:rdf="http://www.w3.org/1999/02/22-rdf-syntax-ns#"
   xmlns:svg="http://www.w3.org/2000/svg"
   xmlns="http://www.w3.org/2000/svg"
   xmlns:sodipodi="http://sodipodi.sourceforge.net/DTD/sodipodi-0.dtd"
   xmlns:inkscape="http://www.inkscape.org/namespaces/inkscape"
   viewBox="0 0 16 16"
   version="1.1"
   id="svg4"
   sodipodi:docname="sc_underlinedouble.svg"
   inkscape:export-filename="/home/jupiter007/Libreoffice yaru theme fullcolor/build/cmd/km/sc_underlinedouble.png"
   inkscape:export-xdpi="96"
   inkscape:export-ydpi="96"
   inkscape:version="0.92.5 (2060ec1f9f, 2020-04-08)">
  <metadata
     id="metadata10">
    <rdf:RDF>
      <cc:Work
         rdf:about="">
        <dc:format>image/svg+xml</dc:format>
        <dc:type
           rdf:resource="http://purl.org/dc/dcmitype/StillImage" />
      </cc:Work>
    </rdf:RDF>
  </metadata>
  <defs
     id="defs8" />
  <sodipodi:namedview
     pagecolor="#ffffff"
     bordercolor="#666666"
     borderopacity="1"
     objecttolerance="10"
     gridtolerance="10"
     guidetolerance="10"
     inkscape:pageopacity="0"
     inkscape:pageshadow="2"
     inkscape:window-width="1920"
     inkscape:window-height="1011"
     id="namedview6"
     showgrid="true"
     inkscape:zoom="29.5"
     inkscape:cx="6.9179617"
     inkscape:cy="7.2294617"
     inkscape:window-x="0"
     inkscape:window-y="32"
     inkscape:window-maximized="1"
     inkscape:current-layer="svg4">
    <inkscape:grid
       type="xygrid"
       id="grid845" />
  </sodipodi:namedview>
  <path
     style="opacity:0.6;fill:#000000;stroke:#000000;stroke-width:2;stroke-linejoin:round;stroke-miterlimit:4;stroke-dasharray:none"
     d="M 3.4140625,0.99999975 2.6054688,1.9804686 2.2050781,2.4707029 C 2.0682645,2.6307029 2,2.7892185 2,2.9492186 c 0,0.1666666 0.075347,0.3333333 0.2265625,0.5 l 0.4316406,0.5 0.5410157,0.6210937 V 9.769531 C 3.1992188,11.922864 4.9992494,13 8.5996094,13 12.19997,13 14,11.922864 14,9.769531 V 4.5996091 L 10.78125,2.8808592 H 14 V 0.99999975 H 10.242188 L 9.4316406,1.9804686 9.03125,2.4707029 C 8.9160385,2.6040362 8.859375,2.7408592 8.859375,2.8808592 c 0,0.1866668 0.1107622,0.3750261 0.3339844,0.5683594 l 0.5625,0.5 1.1328126,0.9902343 V 9.769531 c 0,0.9 -0.76251,1.34961 -2.2890626,1.34961 -1.5265526,0 -2.2890625,-0.44961 -2.2890625,-1.34961 V 4.5996091 L 3.9550781,2.8808592 H 6.9570312 V 0.99999975 Z"
     id="path835" />
  <path
     style="fill:#ffffff"
     d="M 3.4140625,0.99999975 2.6054688,1.9804686 2.2050781,2.4707029 C 2.0682645,2.6307029 2,2.7892185 2,2.9492186 c 0,0.1666666 0.075347,0.3333333 0.2265625,0.5 l 0.4316406,0.5 0.5410157,0.6210937 V 9.769531 C 3.1992188,11.922864 4.9992494,13 8.5996094,13 12.19997,13 14,11.922864 14,9.769531 V 4.5996091 L 10.78125,2.8808592 H 14 V 0.99999975 H 10.242188 L 9.4316406,1.9804686 9.03125,2.4707029 C 8.9160385,2.6040362 8.859375,2.7408592 8.859375,2.8808592 c 0,0.1866668 0.1107622,0.3750261 0.3339844,0.5683594 l 0.5625,0.5 1.1328126,0.9902343 V 9.769531 c 0,0.9 -0.76251,1.34961 -2.2890626,1.34961 -1.5265526,0 -2.2890625,-0.44961 -2.2890625,-1.34961 V 4.5996091 L 3.9550781,2.8808592 H 6.9570312 V 0.99999975 Z"
     id="path839" />
  <path
     style="opacity:0.6;fill:#000000;stroke:#000000;stroke-width:2;stroke-linejoin:round;stroke-miterlimit:4;stroke-dasharray:none"
     d="M 2 12 L 2 13 L 14 13 L 14 12 L 2 12 z M 2 14 L 2 15 L 14 15 L 14 14 L 2 14 z "
     id="path817" />
  <path
     style="fill:#ffffff"
     d="m 2,14 v 1 h 12 v -1 z"
     id="path2" />
  <path
     id="path843"
     d="m 2,12 v 1 h 12 v -1 z"
     style="fill:#ffffff"
     inkscape:connector-curvature="0" />
</svg>

<svg xmlns="http://www.w3.org/2000/svg" viewBox="0 0 16 16"><path d="M3.414 1l-.809.98-.4.49c-.137.16-.205.32-.205.48 0 .166.075.333.227.5l.431.5.541.62v5.2C3.2 11.923 5 13 8.6 13 12.2 13 14 11.923 14 9.77V4.6l-3.219-1.72H14V1h-3.758l-.81.98-.4.49a.624.624 0 00-.173.41c0 .188.111.376.334.57l.563.5 1.133.99v4.83c0 .9-.763 1.35-2.29 1.35-1.526 0-2.288-.45-2.288-1.35V4.6L3.955 2.88h3.002V1z" opacity=".6" stroke="#000" stroke-width="2" stroke-linejoin="round"/><path d="M3.414 1l-.809.98-.4.49c-.137.16-.205.32-.205.48 0 .166.075.333.227.5l.431.5.541.62v5.2C3.2 11.923 5 13 8.6 13 12.2 13 14 11.923 14 9.77V4.6l-3.219-1.72H14V1h-3.758l-.81.98-.4.49a.624.624 0 00-.173.41c0 .188.111.376.334.57l.563.5 1.133.99v4.83c0 .9-.763 1.35-2.29 1.35-1.526 0-2.288-.45-2.288-1.35V4.6L3.955 2.88h3.002V1z" fill="#fff"/><path d="M2 12v1h12v-1H2zm0 2v1h12v-1H2z" opacity=".6" stroke="#000" stroke-width="2" stroke-linejoin="round"/><path d="M2 14v1h12v-1zM2 12v1h12v-1z" fill="#fff"/></svg>
